neru-light-classic/22x22/actions/transaction-find.svg

<svg xmlns="http://www.w3.org/2000/svg" width="22" height="22" version="1.1">
 <defs>
  <style id="current-color-scheme" type="text/css">
   .ColorScheme-Text { color:#1e333d; } .ColorScheme-Highlight { color:#3fb7ff; }
  </style>
 </defs>
 <path style="fill:currentColor" class="ColorScheme-Text" d="M 7,10 3,13.239999 7,17 v -2.02 h 2.0626397 c 0.9771093,0 1.8409673,0.628812 2.1029083,1.44 C 11.478841,17.3902 10.136466,19 10.136466,19 10.136466,19 13,18.12 13,15.779999 13,13.53108 11.568233,12 9.4205816,12 H 7 Z"/>
 <path style="fill:currentColor" class="ColorScheme-Text" d="M 15,12 19,8.760001 15,5 V 7.02 H 12.93736 C 11.960251,7.02 11.096393,6.391188 10.834452,5.58 10.521159,4.6098 11.863534,3 11.863534,3 11.863534,3 9,3.88 9,6.220001 9,8.46892 10.431767,10 12.579418,10 H 15 Z"/>
 <path style="fill:currentColor" class="ColorScheme-Text" d="M 16.5 14 A 2.5 2.5 0 0 0 14 16.5 A 2.5 2.5 0 0 0 16.5 19 A 2.5 2.5 0 0 0 17.876953 18.583984 L 19.292969 20 L 20 20 L 20 19.292969 L 18.583984 17.876953 A 2.5 2.5 0 0 0 19 16.5 A 2.5 2.5 0 0 0 16.5 14 z M 16.5 15 A 1.5 1.5 0 0 1 18 16.5 A 1.5 1.5 0 0 1 16.5 18 A 1.5 1.5 0 0 1 15 16.5 A 1.5 1.5 0 0 1 16.5 15 z"/>
</svg>

<svg xmlns="http://www.w3.org/2000/svg" width="22" height="22"><defs><style id="current-color-scheme" type="text/css">.ColorScheme-Text{color:#1e333d}</style></defs><path class="ColorScheme-Text" d="M7 10l-4 3.24L7 17v-2.02h2.063c.977 0 1.84.629 2.103 1.44.313.97-1.03 2.58-1.03 2.58S13 18.12 13 15.78C13 13.531 11.568 12 9.42 12H7zM15 12l4-3.24L15 5v2.02h-2.063c-.977 0-1.84-.629-2.103-1.44-.313-.97 1.03-2.58 1.03-2.58S9 3.88 9 6.22C9 8.469 10.432 10 12.58 10H15zM16.5 14a2.5 2.5 0 0 0-2.5 2.5 2.5 2.5 0 0 0 2.5 2.5 2.5 2.5 0 0 0 1.377-.416L19.293 20H20v-.707l-1.416-1.416A2.5 2.5 0 0 0 19 16.5a2.5 2.5 0 0 0-2.5-2.5zm0 1a1.5 1.5 0 0 1 1.5 1.5 1.5 1.5 0 0 1-1.5 1.5 1.5 1.5 0 0 1-1.5-1.5 1.5 1.5 0 0 1 1.5-1.5z" fill="currentColor"/></svg>
